X:1
T:Bacup Coconut Dance (4 parts)
M:4/4
L:1/8
H:Used by the Bacup Britannia Coconut Dancers for their Nut Dance, as played by
H:the concertina band - the Stacksteads Silver Band only play the first two parts.
Z:John Adams
S:John Adams tradtunes 2008-2-18
K:G
Bc |\
   d2d2d2e2 | B2B2B2GA | B2B2B2d2 | A6 AB |\
   c2c2c2e2 | A2A2A2 AB | cB AG F2d2 |1 G6 :|2 G6 ef |]
|: g2e2 edef | g2d2d2 GA | B2B2A2G2 | e2d2d2ef |\
   g2e2ed ef | g2d2d2 AB | cBAG F2d2 |1 G6 ef :|2 G8 |]
|: B^AB2 d^cd2 | c2e2 e^de2 | A2A2 c2c2 | Bc de d4 |\
   B^AB2 d^cd2 | c2e2 e^de2 | d2A2 AcBA | G8 :|
K:D
|: A2FG A2Bc | d2d2f4 | g2e2 e^de2 | f2d2 d^cd2 |\
   A2FG A2Bc | d2d2f4 | g2e2 egfe | d6 :|
